mobile/apps/auth/assets/custom-icons/icons/troweprice.svg

<?xml version="1.0" encoding="UTF-8"?>
<svg class="trusty" width="72" height="72" viewBox="0 0 72 72" fill="none" xmlns="http://www.w3.org/2000/svg" role="presentation">
<g clip-path="url(#clip0_136_2653)">
<path fill-rule="evenodd" clip-rule="evenodd" d="M0 0V72H18.9547C19.6146 64.85 20.4143 61.99 24.1933 54.57C28.4921 46.13 29.8117 39.71 29.8117 31.39C29.8117 31.2927 29.8125 31.1864 29.8133 31.0731C29.8198 30.1968 29.8294 28.905 29.5018 28.17C27.8023 28.34 25.373 27.59 23.9334 25.86C22.7137 24.38 21.8839 22.49 21.8839 21.3C21.8839 21.04 21.9139 20.85 22.0739 20.69C23.6634 20.25 26.7826 20.96 28.902 21.95C29.7717 20.53 30.5315 19.61 32.421 18.57C30.7015 14.92 27.5823 12.48 22.8836 12.48C17.4552 12.48 13.8961 15.53 12.7365 18.48C12.3866 19.38 12.8664 19.57 13.4463 18.99C15.7856 16.61 18.2649 15.43 21.504 15.43C25.4829 15.43 27.8223 17.93 27.8223 18.99C27.8223 19.34 27.5623 19.34 27.2124 19.21L27.1642 19.1942C25.9042 18.7805 24.7757 18.41 22.6237 18.41C16.6254 18.41 13.8661 24.03 13.8661 28.81C13.8661 31.44 14.7959 33.37 16.6254 33.37C18.035 33.37 18.8448 32.47 19.5446 31.03C19.7645 30.58 20.1244 30.58 20.4143 31.06C20.8042 31.7 20.8942 32.79 20.8942 33.63C20.8942 37.42 18.105 39.41 14.8959 39.41C8.89753 39.41 5.23854 34.08 5.23854 27.15C5.23854 17.78 11.1469 7.92 23.1436 7.92C31.7812 7.92 36.2699 12.53 38.6593 17.1H39.9289C41.6584 12.99 44.7776 10.55 49.4263 10.55C55.6245 10.55 58.1838 15.37 58.1838 21.11C58.1838 22.6809 58.0188 24.1895 57.8605 25.6374C57.7144 26.973 57.574 28.2568 57.574 29.49C57.574 31.38 58.3738 33.5 60.5232 33.5C61.9028 33.5 63.0625 32.6 63.6323 30.45C63.7923 29.87 64.1422 29.78 64.632 30.39C64.952 30.78 65.4018 31.71 65.4018 32.8C65.4018 35.82 63.4424 39 59.5235 39.03C56.1844 39.06 54.165 37.23 53.7451 34.92C53.6851 34.53 54.035 34.34 54.2549 34.66C55.4746 36.27 57.0442 37.13 59.2635 37.13C60.5132 37.13 61.7628 36.58 62.1827 35.65C62.3127 35.36 62.2127 35.2 61.9928 35.3C61.223 35.65 60.5532 35.78 59.8134 35.78C54.6748 35.78 54.035 30.55 53.6851 25.25C53.2052 26.63 52.2755 27.82 49.8662 28.04C50.0861 27.69 50.256 27.11 50.256 26.69C50.256 26.27 50.0361 25.98 49.5162 25.98C48.7465 25.98 48.0766 26.56 48.0766 27.49C48.0766 28.4238 48.7643 29.4058 49.4753 30.4212C50.0588 31.2544 50.658 32.1101 50.9059 32.98C51.0658 33.56 51.0658 34.07 51.0658 34.71C51.0658 35.83 50.9359 36.93 50.7759 37.47C50.6459 37.89 50.356 38.02 49.5262 38.02C48.9464 38.02 48.7565 37.83 48.6265 37.35C48.5665 37.09 48.4665 36.77 48.2766 36.77C48.067 36.77 47.9936 37.0062 47.9006 37.3054L47.8867 37.35C47.6968 38.02 47.1169 38.15 45.7373 38.15C45.1996 38.15 44.8471 38.1229 44.6162 38.1051H44.6161H44.6161L44.616 38.1051C44.5035 38.0964 44.4199 38.09 44.3577 38.09C44.0078 38.09 43.8778 38.22 43.8778 38.41C43.8778 38.67 43.9078 38.92 43.9778 39.15C44.0378 39.34 44.1677 39.41 44.5576 39.34C45.8373 39.15 46.967 39.12 47.8267 39.12C50.1661 39.12 50.296 39.34 50.1061 40.15C49.9461 40.86 49.6862 41.79 49.3063 42.62C49.0464 43.17 48.8564 43.23 48.4765 43.26C47.7068 43.32 46.677 43.36 45.9072 43.32C44.5099 43.2542 43.2844 42.8113 42.119 42.3902C40.9831 41.9798 39.9043 41.59 38.7792 41.59C38.1699 41.59 37.6128 41.6732 37.0419 41.7585C36.4421 41.8481 35.8271 41.94 35.1202 41.94C33.7406 41.94 32.7609 41.65 31.8212 40.98C30.4615 46.18 29.9617 52.53 29.9617 55.45C29.9617 57.47 30.5415 59.66 31.5712 60.49C31.9211 60.78 32.241 60.78 32.501 60.3C35.0084 55.6355 37.7216 54.0276 40.2896 52.5059C42.6874 51.0849 44.9585 49.7391 46.817 46.05C47.0069 45.7 47.3968 45.76 47.4568 46.18C48.0966 49.97 47.6768 54.56 46.847 58.96C46.747 59.47 47.1069 59.67 47.4568 59.22C48.5165 57.87 49.8961 55.43 50.406 53.47C50.536 52.99 50.9159 52.96 51.1158 53.44C52.3655 56.49 53.7751 62.27 54.195 66.44C54.2249 66.89 54.6448 66.92 54.8048 66.5C55.7045 64 56.2844 59.85 55.6046 56.8C55.5446 56.45 55.7345 56.25 56.1144 56.45C61.6929 59.16 67.1214 64.14 72 71.98V0H0ZM23.1341 65.1C22.1641 67.2 21.4341 69.52 21.2541 72H24.3941C23.9041 69.53 23.8441 67.14 23.8441 65.1C23.8441 64.43 23.5241 64.23 23.1341 65.1ZM45.7273 35.31C44.9875 35.37 44.6676 35.08 44.6676 34.12H44.6776C44.6776 33.8 44.9375 33.38 45.4174 33.38C45.6454 33.38 45.912 33.4104 46.2316 33.4469C46.7107 33.5017 47.3092 33.57 48.0766 33.57C48.3261 33.57 48.5664 33.5332 48.8162 33.4948L48.8164 33.4948L48.8165 33.4948C49.0872 33.4533 49.3691 33.41 49.6862 33.41C50.0361 33.41 50.1961 33.64 50.1961 34.15C50.1961 34.86 50.1261 35.28 49.6462 35.31C48.9064 35.34 48.7465 35.47 48.5865 36.08C48.4865 36.37 48.1666 36.43 48.0067 36.11C47.6168 35.31 46.947 35.21 45.7273 35.31ZM38.4393 26C37.8895 25.2 36.3199 24.2 34.7503 24.23C33.3107 24.2 32.411 25.16 32.411 25.93C32.411 26.12 32.541 26.25 32.7309 26.12C33.0208 25.96 33.2108 25.9 33.4407 25.9C33.7006 26.73 34.4404 27.79 35.88 27.79C36.9697 27.79 37.8395 27.28 37.6795 26.12C37.9395 26.12 38.0994 26.15 38.3194 26.22C38.4493 26.25 38.5093 26.09 38.4493 26H38.4393ZM49.1963 18.45C51.3457 18.45 52.7254 20.18 53.3652 22.27C51.6257 21.98 50.6659 21.98 49.5762 23.23C48.9664 21.47 47.5568 20.09 46.3371 19.51C46.727 19.06 47.5868 18.45 49.1963 18.45Z" fill="#00CFEC"></path>
</g>
<defs>
<clipPath id="clip0_136_2653">
<rect width="72" height="72" fill="white"></rect>
</clipPath>
</defs>
</svg>

<svg xmlns="http://www.w3.org/2000/svg" fill="none" class="trusty" viewBox="0 0 72 72"><g clip-path="url(#a)"><path fill="#00CFEC" fill-rule="evenodd" d="M0 0v72h18.955c.66-7.15 1.46-10.01 5.238-17.43 4.3-8.44 5.619-14.86 5.619-23.18l.001-.317c.007-.876.016-2.168-.311-2.903-1.7.17-4.129-.58-5.569-2.31-1.22-1.48-2.05-3.37-2.05-4.56 0-.26.03-.45.19-.61 1.59-.44 4.71.27 6.829 1.26.87-1.42 1.63-2.34 3.519-3.38-1.72-3.65-4.839-6.09-9.537-6.09-5.429 0-8.988 3.05-10.148 6-.35.9.13 1.09.71.51 2.34-2.38 4.819-3.56 8.058-3.56 3.979 0 6.318 2.5 6.318 3.56 0 .35-.26.35-.61.22l-.048-.016c-1.26-.413-2.388-.784-4.54-.784-5.999 0-8.758 5.62-8.758 10.4 0 2.63.93 4.56 2.76 4.56 1.409 0 2.219-.9 2.919-2.34.22-.45.58-.45.87.03.39.64.48 1.73.48 2.57 0 3.79-2.79 5.78-6 5.78-5.997 0-9.656-5.33-9.656-12.26 0-9.37 5.908-19.23 17.905-19.23 8.637 0 13.126 4.61 15.515 9.18h1.27c1.73-4.11 4.849-6.55 9.497-6.55 6.198 0 8.758 4.82 8.758 10.56 0 1.57-.165 3.08-.323 4.527-.147 1.336-.287 2.62-.287 3.853 0 1.89.8 4.01 2.95 4.01 1.379 0 2.538-.9 3.108-3.05.16-.58.51-.67 1-.06.32.39.77 1.32.77 2.41 0 3.02-1.96 6.2-5.879 6.23-3.339.03-5.358-1.8-5.778-4.11-.06-.39.29-.58.51-.26 1.22 1.61 2.79 2.47 5.008 2.47 1.25 0 2.5-.55 2.92-1.48.13-.29.03-.45-.19-.35-.77.35-1.44.48-2.18.48-5.138 0-5.778-5.23-6.128-10.53-.48 1.38-1.41 2.57-3.819 2.79.22-.35.39-.93.39-1.35 0-.42-.22-.71-.74-.71-.77 0-1.44.58-1.44 1.51 0 .934.688 1.916 1.4 2.931.583.833 1.182 1.69 1.43 2.559.16.58.16 1.09.16 1.73 0 1.12-.13 2.22-.29 2.76-.13.42-.42.55-1.25.55-.58 0-.77-.19-.9-.67-.06-.26-.16-.58-.35-.58-.209 0-.282.236-.375.535l-.014.045c-.19.67-.77.8-2.15.8-.537 0-.89-.027-1.12-.045h-.001a3.798 3.798 0 0 0-.258-.015c-.35 0-.48.13-.48.32 0 .26.03.51.1.74.06.19.19.26.58.19 1.28-.19 2.409-.22 3.269-.22 2.34 0 2.469.22 2.28 1.03-.16.71-.42 1.64-.8 2.47-.26.55-.45.61-.83.64-.77.06-1.8.1-2.57.06-1.397-.066-2.623-.509-3.788-.93-1.136-.41-2.215-.8-3.34-.8-.61 0-1.166.083-1.737.168-.6.09-1.215.182-1.922.182-1.38 0-2.36-.29-3.299-.96-1.36 5.2-1.86 11.55-1.86 14.47 0 2.02.58 4.21 1.61 5.04.35.29.67.29.93-.19 2.507-4.664 5.22-6.272 7.789-7.794 2.397-1.421 4.669-2.767 6.527-6.456.19-.35.58-.29.64.13.64 3.79.22 8.38-.61 12.78-.1.51.26.71.61.26 1.06-1.35 2.44-3.79 2.949-5.75.13-.48.51-.51.71-.03 1.25 3.05 2.66 8.83 3.079 13 .03.45.45.48.61.06.9-2.5 1.48-6.65.8-9.7-.06-.35.13-.55.51-.35C61.692 59.16 67.12 64.14 72 71.98V0H0Zm23.134 65.1c-.97 2.1-1.7 4.42-1.88 6.9h3.14c-.49-2.47-.55-4.86-.55-6.9 0-.67-.32-.87-.71 0Zm22.593-29.79c-.74.06-1.06-.23-1.06-1.19h.01c0-.32.26-.74.74-.74.228 0 .495.03.815.067.479.055 1.077.123 1.845.123.25 0 .49-.037.74-.075.27-.042.552-.085.87-.085.35 0 .51.23.51.74 0 .71-.07 1.13-.55 1.16-.74.03-.9.16-1.06.77-.1.29-.42.35-.58.03-.39-.8-1.06-.9-2.28-.8ZM38.44 26c-.55-.8-2.12-1.8-3.689-1.77-1.44-.03-2.339.93-2.339 1.7 0 .19.13.32.32.19.29-.16.48-.22.71-.22.26.83 1 1.89 2.439 1.89 1.09 0 1.96-.51 1.8-1.67.26 0 .42.03.64.1.13.03.19-.13.13-.22h-.01Zm10.757-7.55c2.15 0 3.53 1.73 4.17 3.82-1.74-.29-2.7-.29-3.79.96-.61-1.76-2.02-3.14-3.239-3.72.39-.45 1.25-1.06 2.86-1.06Z" clip-rule="evenodd"/></g><defs><clipPath id="a"><path fill="#fff" d="M0 0h72v72H0z"/></clipPath></defs></svg>
